X:1
T:Title
%%score { 1 | ( 2 3 ) }
L:1/8
M:6/4
K:Eb
V:1 treble nm="Grand Piano"
V:2 bass 
V:3 bass 
V:1
 z6 z4[Q:1/4=114] G2 | G4 G2 A4 G2 | [DB]4 [DF]2 G4 B2 | c4 c2 B4 E2 |[M:5/4] A4 G2 [DF]4 | %5
[M:1/4] G2 |[M:6/4] G4 G2 A4 G2 | [Ec]4 [Ec]2 B4 B2 | c4 [Ad]2 [Ge]2 [EB]2 [B,EG]2 | %9
[M:5/4] [B,EG]4 [A,DF]2 [G,E]4 |] %10
V:2
 z6 z4 [E,B,E]2 | [E,B,E]4 [E,B,E]2 [E,CE]4 [E,B,E]2 | [B,,B,]4 [B,,B,]2 [E,B,E]4 [E,G,E]2 | %3
 [A,E]4 [A,E]2 [G,B,E]4 [G,B,]2 |[M:5/4] [F,B,D]4 [E,B,E]2 [B,,B,]4 |[M:1/4] [E,B,E]2 | %6
[M:6/4] [E,B,E]4 [E,B,E]2 [E,CE]4 [E,B,E]2 | [A,,A,]4 [A,,A,]2 [E,G,E]4[K:treble] [G,E]2 | %8
 [A,EA]4[K:bass] [F,B,]2 B,2 G,2 E,2 |[M:5/4] B,,4 B,,2 E,4 |] %10
V:3
 x12 | x12 | x12 | x12 |[M:5/4] x10 |[M:1/4] x2 |[M:6/4] x12 | x10[K:treble] x2 | z6[K:bass] .E,6 | %9
[M:5/4] x10 |] %10

